openmetadata-ui/src/main/resources/ui/src/assets/img/add-placeholder.svg

<svg width="86" height="86" viewBox="0 0 86 86" fill="none" xmlns="http://www.w3.org/2000/svg">
<path d="M51.0625 0H9.85417C4.4075 0 0 4.4075 0 9.85417V65.3958C0 70.8425 4.4075 75.25 9.85417 75.25H33.4683C31.5333 71.165 30.4583 66.6142 30.4583 61.8125C30.4583 57.6917 31.2467 53.75 32.7517 50.1308C33.4683 48.3033 34.3642 46.5475 35.4033 44.935C37.7325 41.3158 40.7425 38.2342 44.29 35.8333C46.1175 34.5792 48.0525 33.54 50.1308 32.7517C53.4633 31.3542 57.1183 30.5658 60.9167 30.4942V9.85417C60.9167 4.4075 56.5092 0 51.0625 0Z" fill="#DCE3EC"/>
<path d="M50.1667 32.2474C50.1667 32.4266 50.1667 32.6057 50.1308 32.7491C48.0525 33.5374 46.1175 34.5766 44.29 35.8307H14.3333C12.3625 35.8307 10.75 34.2182 10.75 32.2474C10.75 30.2766 12.3625 28.6641 14.3333 28.6641H46.5833C48.5542 28.6641 50.1667 30.2766 50.1667 32.2474Z" fill="#9CA3AF"/>
<path d="M35.4033 44.935C34.3642 46.5475 33.4683 48.3033 32.7517 50.1308C32.6083 50.1667 32.4292 50.1667 32.25 50.1667H14.3333C12.3625 50.1667 10.75 48.5542 10.75 46.5833C10.75 44.6125 12.3625 43 14.3333 43H32.25C33.6117 43 34.83 43.7883 35.4033 44.935Z" fill="#9CA3AF"/>
<path d="M28.6667 21.4987H14.3333C12.3553 21.4987 10.75 19.8934 10.75 17.9154C10.75 15.9374 12.3553 14.332 14.3333 14.332H28.6667C30.6447 14.332 32.25 15.9374 32.25 17.9154C32.25 19.8934 30.6447 21.4987 28.6667 21.4987Z" fill="#9CA3AF"/>
<path d="M61.8125 86C48.4753 86 37.625 75.1497 37.625 61.8125C37.625 48.4753 48.4753 37.625 61.8125 37.625C75.1497 37.625 86 48.4753 86 61.8125C86 75.1497 75.1497 86 61.8125 86Z" fill="#1890FF"/>
<path d="M61.8128 75.25C59.8348 75.25 58.2295 73.6447 58.2295 71.6667V51.9583C58.2295 49.9803 59.8348 48.375 61.8128 48.375C63.7908 48.375 65.3962 49.9803 65.3962 51.9583V71.6667C65.3962 73.6447 63.7908 75.25 61.8128 75.25Z" fill="white"/>
<path d="M71.6667 65.3971H51.9583C49.9803 65.3971 48.375 63.7918 48.375 61.8138C48.375 59.8358 49.9803 58.2305 51.9583 58.2305H71.6667C73.6447 58.2305 75.25 59.8358 75.25 61.8138C75.25 63.7918 73.6447 65.3971 71.6667 65.3971Z" fill="white"/>
</svg>

<svg xmlns="http://www.w3.org/2000/svg" width="86" height="86" fill="none"><path fill="#DCE3EC" d="M51.063 0H9.853A9.849 9.849 0 0 0 0 9.854v55.542a9.849 9.849 0 0 0 9.854 9.854h23.614a31.288 31.288 0 0 1-3.01-13.438c0-4.12.789-8.062 2.294-11.681a29.533 29.533 0 0 1 2.651-5.196c2.33-3.62 5.34-6.7 8.887-9.102a27.579 27.579 0 0 1 5.84-3.081 29.31 29.31 0 0 1 10.787-2.258V9.854A9.849 9.849 0 0 0 51.062 0Z"/><path fill="#9CA3AF" d="M50.167 32.247c0 .18 0 .359-.036.502a27.579 27.579 0 0 0-5.841 3.082H14.333a3.594 3.594 0 0 1-3.583-3.584 3.594 3.594 0 0 1 3.583-3.583h32.25a3.594 3.594 0 0 1 3.584 3.583ZM35.403 44.935a29.533 29.533 0 0 0-2.651 5.196c-.144.036-.323.036-.502.036H14.333a3.594 3.594 0 0 1-3.583-3.584A3.594 3.594 0 0 1 14.333 43H32.25c1.362 0 2.58.788 3.153 1.935ZM28.667 21.499H14.333a3.585 3.585 0 0 1 0-7.167h14.334a3.585 3.585 0 0 1 0 7.167Z"/><path fill="#1890FF" d="M61.813 86c-13.338 0-24.188-10.85-24.188-24.188 0-13.337 10.85-24.187 24.188-24.187C75.15 37.625 86 48.475 86 61.813 86 75.15 75.15 86 61.812 86Z"/><path fill="#fff" d="M61.813 75.25a3.585 3.585 0 0 1-3.584-3.583V51.958a3.585 3.585 0 0 1 7.167 0v19.709a3.585 3.585 0 0 1-3.583 3.583Z"/><path fill="#fff" d="M71.667 65.397H51.958a3.585 3.585 0 0 1-3.583-3.583 3.585 3.585 0 0 1 3.583-3.584h19.709a3.585 3.585 0 0 1 3.583 3.584 3.585 3.585 0 0 1-3.583 3.583Z"/></svg>
